icons/1_Primary/Elastic.svg

<svg xmlns="http://www.w3.org/2000/svg" viewBox="0 0 1024 1024">
  <circle cx="512" cy="512" r="512" style="fill:#07c"/>
  <path d="M561.131 256.02a142.294 142.294 0 0 0-43.632 7.624c-28.261 9.663-52.635 27.962-69.555 52.222L427.05 422.103l24.26 50.91 124.275 55.784 125.43-107.993a134.047 134.047 0 0 0 2.676-27.061c-.006-29.415-9.59-58.055-27.348-81.73-17.755-23.675-42.75-41.142-71.334-49.845a142.4 142.4 0 0 0-43.878-6.148zm-175.638 46.087c-14.536-.087-28.706 4.46-40.395 12.954-11.69 8.495-20.27 20.486-24.447 34.173a65.062 65.062 0 0 0 1.27 41.752l85.163 19.76 18.644-95.203c-11.583-8.634-25.699-13.349-40.235-13.436zm-70.966 108.804c-18.686 6.199-34.943 17.964-46.508 33.666-11.566 15.702-17.86 34.56-18.019 53.945-.013 18.736 5.775 37.027 16.594 52.45 10.82 15.425 26.156 27.248 43.974 33.894l119.486-106.174-21.951-46.075Zm398.93 27.645L590.936 544.013l24.853 46.76 93.679 21.51c18.696-6.182 34.964-17.945 46.533-33.654 11.57-15.705 17.861-34.568 18-53.958-.017-18.696-5.816-36.942-16.626-52.323-10.814-15.38-26.132-27.166-43.916-33.792zM444.973 493.75l-122.29 108.64a137.656 137.656 0 0 0-2.74 27.479c0 29.538 9.633 58.3 27.483 82.06 17.85 23.761 42.972 41.269 71.689 49.959a142.817 142.817 0 0 0 87.864-1.68c28.352-9.777 52.768-28.229 69.665-52.653l20.694-106.009-27.625-51.917Zm172.04 119.052-18.515 94.753c11.566 8.59 25.645 13.273 40.138 13.347 14.494.075 28.625-4.46 40.28-12.928 11.659-8.47 20.213-20.42 24.395-34.065a64.972 64.972 0 0 0-1.205-41.638z" style="fill:#fff"/>
</svg>

<svg width="1024" height="1024" viewBox="0 0 1024 1024" fill="none" xmlns="http://www.w3.org/2000/svg">
<g clip-path="url(#clip0_2_2079)">
<path d="M512 1024C794.77 1024 1024 794.77 1024 512C1024 229.23 794.77 0 512 0C229.23 0 0 229.23 0 512C0 794.77 229.23 1024 512 1024Z" fill="#728DBE"/>
<path d="M561.131 256.02C546.278 256.268 531.556 258.84 517.499 263.644C489.238 273.307 464.864 291.606 447.944 315.866L427.05 422.103L451.31 473.013L575.585 528.797L701.015 420.804C702.822 411.897 703.719 402.83 703.691 393.743C703.685 364.328 694.101 335.688 676.343 312.013C658.588 288.338 633.593 270.871 605.009 262.168C590.793 257.842 575.988 255.767 561.131 256.02ZM385.493 302.107C370.957 302.02 356.787 306.567 345.098 315.061C333.408 323.556 324.828 335.547 320.651 349.234C316.474 362.912 316.92 377.586 321.921 390.986L407.084 410.746L425.728 315.543C414.145 306.909 400.029 302.194 385.493 302.107ZM314.527 410.911C295.841 417.11 279.584 428.875 268.019 444.577C256.453 460.279 250.159 479.137 250 498.522C249.987 517.258 255.775 535.549 266.594 550.972C277.414 566.397 292.75 578.22 310.568 584.866L430.054 478.692L408.103 432.617L314.527 410.911ZM713.457 438.556L590.936 544.013L615.789 590.773L709.468 612.283C728.164 606.101 744.432 594.338 756.001 578.629C767.571 562.924 773.862 544.061 774.001 524.671C773.984 505.975 768.185 487.729 757.375 472.348C746.561 456.968 731.243 445.182 713.459 438.556H713.457ZM444.973 493.75L322.683 602.39C320.851 611.434 319.933 620.64 319.943 629.869C319.943 659.407 329.576 688.169 347.426 711.929C365.276 735.69 390.398 753.198 419.115 761.888C447.852 770.576 478.596 769.989 506.979 760.208C535.331 750.431 559.747 731.979 576.644 707.555L597.338 601.546L569.713 549.629L444.973 493.75ZM617.013 612.802L598.498 707.555C610.064 716.145 624.143 720.828 638.636 720.902C653.13 720.977 667.261 716.442 678.916 707.974C690.575 699.504 699.129 687.554 703.311 673.909C707.49 660.273 707.067 645.642 702.106 632.271L617.013 612.802Z" fill="white"/>
</g>
<defs>
<clipPath id="clip0_2_2079">
<rect width="1024" height="1024" fill="white"/>
</clipPath>
</defs>
</svg>
